static/img/svg/aperture.svg

<svg xmlns="http://www.w3.org/2000/svg" width="24" height="24"><path d="M12 2C6.579 2 2 6.579 2 12s4.579 10 10 10 10-4.579 10-10S17.421 2 12 2zm.751 2.039c2.165.213 4.108 1.331 5.437 2.961h-7.146l1.709-2.961zm2.826 8.032L13.887 15h-3.732L8.29 11.768 9.887 9h3.917l1.773 3.071zM10.36 4.18L7.134 9.768 5.656 7.207C6.809 5.699 8.469 4.592 10.36 4.18zM4.61 15A7.757 7.757 0 0 1 4 12c0-.966.19-1.894.521-2.76L7.845 15H4.61zm6.429 4.934C8.958 19.671 7.097 18.576 5.812 17h6.92l-1.693 2.934zm2.348-.068l3.345-5.794 1.589 2.752c-1.203 1.558-2.953 2.678-4.934 3.042zM20 12a7.73 7.73 0 0 1-.537 2.803L16.113 9h3.276A7.74 7.74 0 0 1 20 12z"/></svg>

<?xml version="1.0" encoding="utf-8"?>
<!-- Generator: Adobe Illustrator 16.0.0, SVG Export Plug-In . SVG Version: 6.00 Build 0)  -->
<!DOCTYPE svg PUBLIC "-//W3C//DTD SVG 1.1//EN" "http://www.w3.org/Graphics/SVG/1.1/DTD/svg11.dtd">
<svg version="1.1" id="Layer_1" xmlns="http://www.w3.org/2000/svg" xmlns:xlink="http://www.w3.org/1999/xlink" x="0px" y="0px"
	 width="24px" height="24px" viewBox="0 0 24 24" enable-background="new 0 0 24 24" xml:space="preserve">
<g>
	<path d="M12,2C6.579,2,2,6.579,2,12s4.579,10,10,10s10-4.579,10-10S17.421,2,12,2z M12.751,4.039
		C14.916,4.252,16.859,5.37,18.188,7h-7.146L12.751,4.039z M15.577,12.071L13.887,15h-3.732l-1.865-3.232L9.887,9h3.917
		L15.577,12.071z M10.36,4.18L7.134,9.768L5.656,7.207C6.809,5.699,8.469,4.592,10.36,4.18z M4.61,15C4.22,14.068,4,13.055,4,12
		c0-0.966,0.19-1.894,0.521-2.76L7.845,15H4.61z M11.039,19.934C8.958,19.671,7.097,18.576,5.812,17h6.92L11.039,19.934z
		 M13.387,19.866l3.345-5.794l1.589,2.752C17.118,18.382,15.368,19.502,13.387,19.866z M20,12c0,0.981-0.196,1.925-0.537,2.803
		L16.113,9h3.276C19.78,9.932,20,10.945,20,12z"/>
</g>
</svg>
